X:181
T:Gordon's Jig
R:Jig
C:NEIL BARRON
S:NOV 2004
M:6/8
L:1/8
Q:116
K:F
c|: "F" f2 f c2 A |"Gm" GAB "D7" c2 A| "Gm" GAB "C7" cde| "F" fAd "C7" c2 c|!
"F" f2 f "D7" c2 A| "Gm" GAB "D7" cBA | "Gm" GAB "C7" cde | "F" f3 f2 c|!
| "F" fAd c2 c| "F" cFB ABA| "Gm" G2 B A2 c| "Gm" GAB "C7" cde|!
"F" fAd c2 c| "F" cFB "D7" ABA| "Gm" GAB "C7" cde| "F" f3 f2:|
